X:20
T:Sur l'pont de Nantes
T:Au pont du nord
C:Paroles et musiques traditionnelles
C:Harmonisation Edouard-Gabriel Midon
Z:Transcrit et/ou corrigé par Michel BELLON - 2006-04-28
Z:Pour toute observation mailto:galouvielle@free.fr
M:2/4
L:1/8
K:G
V:1
zD GA | "G"B2B2 | B>A Bc | BGBG |
"D"D2A2 | A>GAB | "G"G2z2 | z4 |]
V:2
zD GA | G2G2 | G>FGA | GGFE |
D2D2 | F>D EF | G2z2 | z4 |]
V:3
z4 | zD GD | B,4 | zD DE |
D4 | z>D EF | D>D ED | B,4 |]
V:4
z4 | zB, B,B, | G,4 | zG, B,B, |
A,4 | z>B, CD | B,>D, E,F, | G,4 |]

%%footer $D   Galouvielle-MBe 2006 \n-- (--)
